src/components/Sprite/svg/grass.svg

<?xml version="1.0" encoding="UTF-8" standalone="no"?>
<svg
   xmlns:dc="http://purl.org/dc/elements/1.1/"
   xmlns:cc="http://creativecommons.org/ns#"
   xmlns:rdf="http://www.w3.org/1999/02/22-rdf-syntax-ns#"
   xmlns:svg="http://www.w3.org/2000/svg"
   xmlns="http://www.w3.org/2000/svg"
   xmlns:sodipodi="http://sodipodi.sourceforge.net/DTD/sodipodi-0.dtd"
   xmlns:inkscape="http://www.inkscape.org/namespaces/inkscape"
   sodipodi:docname="grass.svg"
   inkscape:version="1.0 (4035a4f, 2020-05-01)"
   id="svg8"
   version="1.1"
   viewBox="0 0 128 128"
   height="128"
   width="128">
  <defs
     id="defs2" />
  <sodipodi:namedview
     inkscape:bbox-nodes="true"
     inkscape:bbox-paths="true"
     inkscape:snap-bbox="true"
     inkscape:window-maximized="0"
     inkscape:window-y="25"
     inkscape:window-x="0"
     inkscape:window-height="1359"
     inkscape:window-width="2560"
     units="px"
     showgrid="true"
     inkscape:document-rotation="0"
     inkscape:current-layer="layer1"
     inkscape:document-units="px"
     inkscape:cy="70.290016"
     inkscape:cx="122.53864"
     inkscape:zoom="7.542801"
     inkscape:pageshadow="2"
     inkscape:pageopacity="0.0"
     borderopacity="1.0"
     bordercolor="#666666"
     pagecolor="#ffffff"
     id="base">
    <inkscape:grid
       empspacing="4"
       id="grid10"
       type="xygrid" />
    <inkscape:grid
       empspacing="2"
       spacingy="8"
       spacingx="8"
       id="grid12"
       type="xygrid" />
  </sodipodi:namedview>
  <metadata
     id="metadata5">
    <rdf:RDF>
      <cc:Work
         rdf:about="">
        <dc:format>image/svg+xml</dc:format>
        <dc:type
           rdf:resource="http://purl.org/dc/dcmitype/StillImage" />
        <dc:title></dc:title>
      </cc:Work>
    </rdf:RDF>
  </metadata>
  <g
     id="layer1"
     inkscape:groupmode="layer"
     inkscape:label="Layer 1">
    <path
       d="M 20,4 H 108 C 116.864,4 124,11.136 124,20 V 108 C 124,116.864 116.864,124 108,124 H 20 C 11.136,124 4,116.864 4,108 V 20 C 4,11.136 11.136,4 20,4 Z"
       style="fill:#8bc34a;stroke:none;stroke-width:8;stroke-linecap:round;stroke-linejoin:round;stroke-miterlimit:4;stroke-dasharray:none"
       id="rect1178" />
    <path
       id="path1180"
       d="M 81.111111,66 74,50 84.666667,58 81.111111,42 91.777778,54 95.333333,34 98.888889,54 106,46 102.44444,66 Z"
       style="fill:#689f38;stroke:none;stroke-width:0.94280900000000001px;stroke-linecap:butt;stroke-linejoin:miter;stroke-opacity:1" />
    <path
       style="fill:#689f38;stroke:none;stroke-width:0.70710700000000004px;stroke-linecap:butt;stroke-linejoin:miter;stroke-opacity:1"
       d="M 39.333333,98 34,86 42.000001,92 39.333333,80 47.333333,89 49.999999,74 52.66667,89 58,83 55.33333,98 Z"
       id="path1182" />
    <path
       id="path1184"
       d="M 22.888888,54 14,34 27.333335,44 22.888888,24 36.22222,39 40.66667,14 45.11112,39 54,29 49.55555,54 Z"
       style="fill:#689f38;stroke:none;stroke-width:1.17850999999999995px;stroke-linecap:butt;stroke-linejoin:miter;stroke-opacity:1" />
  </g>
</svg>

<svg xmlns="http://www.w3.org/2000/svg" viewBox="0 0 128 128">
    <path fill="#8bc34a" d="M20 4h88c8.864 0 16 7.136 16 16v88c0 8.864-7.136 16-16 16H20c-8.864 0-16-7.136-16-16V20c0-8.864 7.136-16 16-16z"/>
    <path fill="#689f38" d="M81.111 72L74 56l10.667 8-3.556-16 10.667 12 3.555-20 3.556 20L106 52l-3.556 20zM39.333 98L34 86l8 6-2.667-12 8 9L50 74l2.667 15L58 83l-2.667 15zM22.889 54L14 34l13.333 10-4.444-20 13.333 15 4.445-25 4.444 25L54 29l-4.444 25z"/>
</svg>
